style-guide/assets/xd-icons-checkbox-tiny.svg

<svg viewBox="0 0 12 12" xmlns="http://www.w3.org/2000/svg">
  <path d="M2 10h8V2H2v8zm9-10H1a1 1 0 0 0-1 1v10a1 1 0 0 0 1 1h10a1 1 0 0 0 1-1V1a1 1 0 0 0-1-1zM4.293 7.707a.997.997 0 0 0 1.414 0l3-3a.999.999 0 1 0-1.414-1.414L5 5.586l-.293-.293a.999.999 0 1 0-1.414 1.414l1 1z"/>
</svg>

<?xml version="1.0" encoding="UTF-8"?>
<svg width="12px" height="12px" viewBox="0 0 12 12" version="1.1" xmlns="http://www.w3.org/2000/svg" xmlns:xlink="http://www.w3.org/1999/xlink">
    <!-- Generator: Sketch 51.3 (57544) - http://www.bohemiancoding.com/sketch -->
    <title>check box</title>
    <desc>Created with Sketch.</desc>
    <defs></defs>
    <g id="check-box" stroke="none" stroke-width="1" fill="none" fill-rule="evenodd">
        <path d="M2,10 L10,10 L10,2 L2,2 L2,10 Z M11,0 L1,0 C0.448,0 0,0.448 0,1 L0,11 C0,11.552 0.448,12 1,12 L11,12 C11.552,12 12,11.552 12,11 L12,1 C12,0.448 11.552,0 11,0 Z M4.293,7.707 C4.488,7.902 4.744,8 5,8 C5.256,8 5.512,7.902 5.707,7.707 L8.707,4.707 C9.098,4.316 9.098,3.684 8.707,3.293 C8.316,2.902 7.684,2.902 7.293,3.293 L5,5.586 L4.707,5.293 C4.316,4.902 3.684,4.902 3.293,5.293 C2.902,5.684 2.902,6.316 3.293,6.707 L4.293,7.707 Z" id="Fill-3" fill="#000000"></path>
    </g>
</svg>
